app/dist/common/images/shanghai-construction-co-ltd.svg

<svg height="18" viewBox="0 0 18 18" width="18" xmlns="http://www.w3.org/2000/svg"><path d="m0 0h18v18h-18z" fill="#f0f3fa"/><path d="m4 14v-7h2.5v2h2.5v2.5h2v2.5z"/><path d="m9 4-2.5 3.05v.1l2.5-3zm0 2.34-2.57 2.66v.11l2.56-2.61v-.15zm-.11 2.74 2.6-2.56v.14l-2.59 2.52v-.1zm2.75-.27-2.65 2.67v.11l2.65-2.63v-.16zm-.68 2.7 2.9-2.51h.14l-3.04 2.63v-.11z"/><path d="m9 6.5v-2.5h5v5h-2.5v-2.5z" fill="#f50021"/></svg>

<!-- by TradingView --><svg width="18" height="18" viewBox="0 0 18 18" xmlns="http://www.w3.org/2000/svg"><path fill="#F0F3FA" d="M0 0h18v18H0z"/><path d="M4 14V7h2.5v2H9v2.5h2V14H4Z"/><path d="M9 4 6.5 7.05v.1l2.5-3V4Zm0 2.34L6.43 9v.11L8.99 6.5v-.15Zm-.11 2.74 2.6-2.56v.14L8.9 9.18v-.1Zm2.75-.27-2.65 2.67v.11l2.65-2.63V8.8Zm-.68 2.7L13.86 9H14l-3.04 2.63v-.11Z"/><path d="M9 6.5V4h5v5h-2.5V6.5H9Z" fill="#F50021"/></svg>
